svgs/sharp-regular/cart-circle-plus.svg

<svg xmlns="http://www.w3.org/2000/svg" viewBox="0 0 640 512"><!--! Font Awesome Pro 6.6.0 by @fontawesome - https://fontawesome.com License - https://fontawesome.com/license (Commercial License) Copyright 2024 Fonticons, Inc. --><path d="M24 0L0 0 0 48l24 0 52.1 0 60.3 316.5 3.7 19.5 19.9 0 160.7 0c-.5-5.3-.7-10.6-.7-16c0-10.9 1-21.6 2.9-32l-143 0-9.1-48 168.5 0c9.2-18 21.4-34.2 36-48l-213.6 0L131.1 80l379.6 0L475.3 193.2c6.8-.8 13.7-1.2 20.7-1.2c10 0 19.7 .8 29.2 2.4L561 80l15-48-50.3 0L122 32l-2.4-12.5L115.9 0 96 0 24 0zM176 512a48 48 0 1 0 0-96 48 48 0 1 0 0 96zM352 368a144 144 0 1 0 288 0 144 144 0 1 0 -288 0zm208 16l-48 0 0 48 0 16-32 0 0-16 0-48-48 0-16 0 0-32 16 0 48 0 0-48 0-16 32 0 0 16 0 48 48 0 16 0 0 32-16 0z"/></svg>

<svg xmlns="http://www.w3.org/2000/svg" viewBox="0 0 640 512"><!--! Font Awesome Pro 6.4.0 by @fontawesome - https://fontawesome.com License - https://fontawesome.com/license (Commercial License) Copyright 2023 Fonticons, Inc. --><path d="M24 0H0V48H24 76.1l60.3 316.5 3.7 19.5H160 320.7c-.5-5.3-.7-10.6-.7-16c0-10.9 1-21.6 2.9-32h-143l-9.1-48H339.2c9.2-18 21.4-34.2 36-48H161.6L131.1 80H510.7L475.3 193.2c6.8-.8 13.7-1.2 20.7-1.2c10 0 19.7 .8 29.2 2.4L561 80l15-48H525.7 122l-2.4-12.5L115.9 0H96 24zM176 512a48 48 0 1 0 0-96 48 48 0 1 0 0 96zM352 368a144 144 0 1 0 288 0 144 144 0 1 0 -288 0zm208 16H512v48 16H480V432 384H432l-16 0V352l16 0h48V304 288h32v16 48h48 16v32H560z"/></svg>
